X: 739
T: Tim the Thatcher
R:jig
N:"Collected by Mary O'Neill"
B:O'Neill's 739
Z:Transcribed by Michael Hogan
M:6/8
L:1/8
K:A
E | A>BA c2A | d2B G2B | A>BA c2A | B2E GAB |
A>BA c2A | dBd e2 (e/f/) | =gag gfe | dBG A2 :|
d | e>fe d2B | e2A A>Bd | e>fe d2B | dBG GdB |
e>fe d2B | e2f g2a | ba=g gfe | dBG A2 :|


